X: 8326
T: Cossack Medley
R: polka
M: 2/4
K: Aminor
|:"E7"d2 Bc|d2 Bc|d2 cB|"Am"A2 ee|"E7"d>c Bc|d2 Bc|d2 cB|"Am"A2 ee:|
|:"Am"A3 B|c3 A|cc BA|"E7"B2 E2|B3 c|d3 B|dd cB|"Am"A4|
"Am"e2 "F"a2|"C"g2 "A7"ag|"Dm"ff ed|"Am"e2 A2|"Dm"zf2 d|"Am"e3 c|"E7"BE cB|1 "Am"A4:|2 "Am"A2 ee||
|:"E7"d2 Bc|d2 Bc|d2 cB|"Am"A2 ee|"E7"d>c Bc|d2 Bc|d2 cB|"Am"A2 ee:|
|:"Am"A3 B|c3 A|cc BA|"E7"B2 E2|B3 c|d3 B|dd cB|"Am"A4|
"Am"e2 "F"a2|"C"g2 "A7"ag|"Dm"ff ed|"Am"e2 A2|"Dm"zf2 d|"Am"e3 c|"E7"BE cB|1 "Am"A4|2 "Am" (A4|A4)||

